svg/300/outlined/lte_mobiledata_badge-fill.svg

<svg xmlns="http://www.w3.org/2000/svg" width="48" height="48" viewBox="0 -960 960 960"><path d="M117.694-140.001q-23.53 0-40.61-17.082Q60-174.165 60-197.694v-564.612q0-23.529 17.082-40.611 17.082-17.082 40.611-17.082h724.612q23.529 0 40.611 17.082 17.082 17.082 17.082 40.611v564.612q0 23.529-17.082 40.611-17.082 17.082-40.611 17.082H117.694Zm65.385-190h167.614v-45.383H228.462v-254.615h-45.383v299.998Zm237.23 0h45.383v-254.615h83.846v-45.383H336.847v45.383h83.462v254.615Zm202.076 0h167.614v-45.383h-122.23v-81.924h82.23v-45.384h-82.23v-81.924h122.23v-45.383H622.385v299.998Z"/></svg>

<svg xmlns="http://www.w3.org/2000/svg" width="48" height="48" viewBox="0 -960 960 960"><path d="M117.69-140q-23.53 0-40.61-17.08T60-197.69v-564.62q0-23.53 17.08-40.61T117.69-820h724.62q23.53 0 40.61 17.08T900-762.31v564.62q0 23.53-17.08 40.61T842.31-140H117.69Zm65.39-190h167.61v-45.38H228.46V-630h-45.38v300Zm237.23 0h45.38v-254.62h83.85V-630H336.85v45.38h83.46V-330Zm202.08 0H790v-45.38H667.77v-81.93H750v-45.38h-82.23v-81.93H790V-630H622.39v300Z"/></svg>
